X: 1
T: Dot and Clio's Jig
C: Marcia Landa \2512018
R: jig
Z: 2018 John Chambers <jc:trillian.mit.edu>
M: 6/8
L: 1/8
K: G
|:\
"G"GBA "Bm"GBA | "Em"GBG "C"E2"D"F | "G"GBA "Bm"GBd | "C"ece "D"d2"B"^d |\
"C"ege "G"dBG | "Am"ABG "C"E2"D"F | "G"GBd "C"ecB |1 "D"AGF "C"E2"D"F :|2 "D"AGF "G"G2d |
|:\
"C"ege "G"dBG | "D"AGA "Em"B2"D"d | "C"ege "G"dga | "Em"bgb "D"a2"Em"g |\
"C"ege "G"dBG | "Am"ABG "C"E2"D"F | "G"GBd "C"edB |1 "D"AGF "G"G2d :|2 "D"AGF "G"G2D |]
